!!!OTL: 149. Skotshne
!!!Genre:	Skotshne
!!!Mode:	Minor
!!!Listening/dance:	dance
!!!One_Mode:	no
**kern
*I"P1
*clefG2
*k[b-e-]
*g:
*M2/4
*>A
!LO:TX:a:i:t=G-minor
=1
(16dLL
16g)
16b-'
16a'JJ
(16gLL
16b-)
16dd'
16b-'JJ
=2
(16ccLL
16dd)
(16cc
16ddJJ)
8.ccTL
16b-Jk
=3
(16fLL
16b-)
16dd'
16cc'JJ
(16b-LL
16dd)
16ff'
16dd'JJ
=4
16ccLL
16dd
16cc
16ddJJ
8.ccL
16b-Jk
=5
(16b-LL
16a)
(16a
16b-JJ)
(16b-LL
16a-X)
(16a-
16gJJ)
=6
4g
16ee-LL
16dd
16cc
16b-JJ
=7
(16b-LL
16a)
(16a
16b-JJ)
(16b-LL
16a-X)
(16a-
16gJJ)
=
4g
16r
=8||
*>B
16gLL
16b-
16ddJJ
=9
4.gg
16ffLL
16ee-JJ
=10
2dd
=11
16ggLL
16dd
16gg
16ddJJ
8ggL
16ffL
16ee-JJ
=12
2dd
=13
8ggL
8ggJ
8.ggTL
16ffJk
=14
8aaL
8aaJ
8.aatL
16ggJk
=15
16ggLL
16dd
16gg
16ddJJ
8ggL
16ffL
16ee-JJ
=16
2dd
*>bM
*B-:
!LO:TX:a:i:t=Bb-major
=17
16b-LL
16cc
16dd
16ee-JJ
16ddLL
16ee-
16dd
16ee-JJ
=18
16ddLL
16ee-
16dd
16ee-JJ
8.ddL
16ccJk
=19
(16ccLL
16g)
(16g
16ccJJ)
(16ccLL
16g)
(16g
16ccJJ)
=20
8ccL
16b-L
16aJJ
4b-
*>eM
*g:
!LO:TX:a:i:t=G-minor
=21
(16b-LL
16a)
(16a
16b-JJ)
(16b-LL
16a-X)
(16a-
16gJJ)
=22
4g
16ee-LL
16dd
16cc
16b-JJ
=23
(16b-LL
16a)
(16a
16b-JJ)
16b-LL
16a-X
16a-
16gJJ
=24
2g
==
*-
